polaris-icons/icons/newicons/AnalyticsBarStackedMinor.svg

<svg width="20" height="20" viewBox="0 0 20 20" fill="none" xmlns="http://www.w3.org/2000/svg">
<path fill-rule="evenodd" clip-rule="evenodd" d="M4.25 5.75C3.00736 5.75 2 6.75736 2 8V12C2 13.2426 3.00736 14.25 4.25 14.25H15.75C16.9926 14.25 18 13.2426 18 12V8C18 6.75736 16.9926 5.75 15.75 5.75H4.25ZM3.5 8C3.5 7.58579 3.83579 7.25 4.25 7.25H11V12.75H4.25C3.83579 12.75 3.5 12.4142 3.5 12V8ZM14 12.75H15.75C16.1642 12.75 16.5 12.4142 16.5 12V8C16.5 7.58579 16.1642 7.25 15.75 7.25H14V12.75Z" fill="black"/>
</svg>

<svg viewBox="0 0 20 20" fill="none" xmlns="http://www.w3.org/2000/svg"><path fill-rule="evenodd" clip-rule="evenodd" d="M4.25 5.75a2.25 2.25 0 0 0-2.25 2.25v4a2.25 2.25 0 0 0 2.25 2.25h11.5a2.25 2.25 0 0 0 2.25-2.25v-4a2.25 2.25 0 0 0-2.25-2.25h-11.5Zm-.75 2.25a.75.75 0 0 1 .75-.75h6.75v5.5h-6.75a.75.75 0 0 1-.75-.75v-4Zm10.5 4.75h1.75a.75.75 0 0 0 .75-.75v-4a.75.75 0 0 0-.75-.75h-1.75v5.5Z" fill="#5C5F62"/></svg>
